X: 2002
T: Saraband.
%R: saraband
B: Henry Playford "Apollo's Banquet", London 1687 (5th Edition)
F: https://archive.org/details/apollosbanquetco01rugg
Z: 2017 John Chambers <jc:trillian.mit.edu>
M: 3/4
L: 1/8
K: G
% - - - - - - - - - -
|:\
g3 g B>c | d3 c B2 | c3  E FG | F3 E D2 |\
g3 g B>c | d3 d ef | g3  a gf | e4   d2 :|
|:\
a3 a gf  | g3 a b2 | g3 ^d e>f | f4 e2 |\
d3 d c>B | c3 d ef | g3  A B>c | A4 HG2 |]
% - - - - - - - - - -

%%sep 1 1 500
%%sep 1 1 500

